icons/gurney-stretcher.svg

<?xml version="1.0" encoding="UTF-8"?><svg xmlns="http://www.w3.org/2000/svg" viewBox="0 0 50 50"><g id="uuid-32deaf0e-e409-4068-aed0-f022f10be19d"><path d="M44.8,24.49h-6.33c.02-.06,.04-.12,.04-.18V9.23h2.18c.28,0,.5-.22,.5-.5s-.22-.5-.5-.5h-2.18v-1.76c0-.28-.22-.5-.5-.5s-.5,.22-.5,.5v1.76h-4.83c-.13,0-.26,.05-.35,.15-.09,.09-.15,.22-.15,.35v1.84h-1.24c-.28,0-.5,.22-.5,.5v6.59c0,.28,.22,.5,.5,.5h1.2c-.33,4.27-1.2,6.27-2.7,6.28-.08,0-.16,.03-.23,.06l-12.11,.06c.42-.91,.4-1.99-.09-3.15-.55-1.3-1.63-2.62-3.14-3.82-1.45-1.16-3.12-1.87-4.69-2.02-1.5-.14-2.75,.25-3.59,1.1l-.41-.37c-.58-.51-1.32-.75-2.09-.7-.77,.05-1.47,.4-1.98,.98-1.05,1.2-.92,3.03,.26,4.06l8.69,8.32H4.53c-1.92,0-3.47,1.56-3.47,3.47s1.56,3.47,3.47,3.47h3.92v2.6c-1.27,.25-2.24,1.38-2.24,2.73,0,1.53,1.25,2.78,2.78,2.78s2.78-1.25,2.78-2.78c0-1.38-1.01-2.52-2.33-2.74v-2.6l33.24-.03v2.64c-1.27,.25-2.24,1.38-2.24,2.73,0,1.53,1.25,2.78,2.78,2.78s2.78-1.25,2.78-2.78c0-1.38-1.01-2.52-2.33-2.74v-2.64h1.1c1.94,0,3.52-1.58,3.52-3.52v-4.34c0-1.94-1.58-3.52-3.52-3.52ZM10.78,41.24c0,.98-.8,1.78-1.78,1.78s-1.78-.8-1.78-1.78,.8-1.78,1.78-1.78,1.78,.8,1.78,1.78Zm34.24,0c0,.98-.8,1.78-1.78,1.78s-1.78-.8-1.78-1.78,.8-1.78,1.78-1.78,1.78,.8,1.78,1.78ZM31.44,11.58h2.45v5.59h-2.45v-5.59Zm1.71,6.59h1.24c.28,0,.5-.22,.5-.5v-6.59c0-.28-.22-.5-.5-.5h-1.21v-1.34h4.33v15.07c0,.06,.01,.12,.04,.18h-6.13c1.15-1.33,1.55-3.91,1.73-6.32Zm-24.06-1.59c1.38,.13,2.86,.77,4.16,1.8,1.36,1.08,2.37,2.3,2.84,3.43,.46,1.1,.4,2.03-.16,2.77h-1.65l-7.95-7.21c.63-.61,1.58-.9,2.74-.79Zm38.24,15.76c0,1.39-1.13,2.52-2.52,2.52l-40.27,.04c-1.36,0-2.47-1.11-2.47-2.47s1.11-2.47,2.47-2.47h6.77s.01,0,.02,0h31.91c.28,0,.5-.22,.5-.5s-.22-.5-.5-.5H11.49L2.03,19.91c-.78-.68-.87-1.88-.18-2.66,.68-.78,1.88-.87,2.65-.19l9.25,8.4c.09,.08,.21,.13,.34,.13h0l16.95-.09,13.75-.02c1.39,0,2.52,1.13,2.52,2.52v4.34Z"/></g><g id="uuid-d665e07e-3010-4af5-a195-48909d408c54"><text transform="translate(-.52 54.91)" font-family="Roboto-Regular, Roboto" font-size="6"><tspan x="0" y="0">gurn</tspan><tspan x="12.01" y="0" letter-spacing="0em">e</tspan><tspan x="15.16" y="0">y-st</tspan><tspan x="24.7" y="0" letter-spacing="0em">r</tspan><tspan x="26.68" y="0">etcher</tspan></text></g></svg>

<svg xmlns="http://www.w3.org/2000/svg" viewBox="0 0 50 50"><g id="fd1969dd-85f3-4d40-91d1-e95e4fe47f34" data-name="ICONS"><path d="M44.8,24.49H38.47a.58.58,0,0,0,0-.18V9.23h2.17a.5.5,0,0,0,.5-.5.5.5,0,0,0-.5-.5H38.51V6.47A.51.51,0,0,0,38,6a.5.5,0,0,0-.5.5V8.23H32.67a.51.51,0,0,0-.35.15.51.51,0,0,0-.15.36v1.84H30.94a.5.5,0,0,0-.5.5v6.59a.5.5,0,0,0,.5.5h1.2c-.34,4.27-1.2,6.27-2.71,6.28a.51.51,0,0,0-.22.06l-12.11.07A3.82,3.82,0,0,0,17,21.43a10.31,10.31,0,0,0-3.14-3.82,9,9,0,0,0-4.7-2,4.33,4.33,0,0,0-3.59,1.1l-.41-.38a2.89,2.89,0,0,0-2.09-.7,2.85,2.85,0,0,0-2,1,2.89,2.89,0,0,0,.26,4.06L10.05,29H4.53a3.47,3.47,0,1,0,0,6.94H8.45v2.61a2.8,2.8,0,1,0,1,0v-2.6l33.24,0v2.65a2.8,2.8,0,1,0,1,0V35.87H44.8a3.53,3.53,0,0,0,3.52-3.52V28A3.53,3.53,0,0,0,44.8,24.49Zm-34,16.75A1.79,1.79,0,1,1,9,39.46,1.79,1.79,0,0,1,10.78,41.24Zm34.24,0a1.79,1.79,0,1,1-1.78-1.78A1.79,1.79,0,0,1,45,41.24ZM31.44,11.58h2.44v5.59H31.44Zm1.7,6.59h1.24a.5.5,0,0,0,.5-.5V11.08a.5.5,0,0,0-.5-.5H33.17V9.23h4.34V24.31a.57.57,0,0,0,0,.18H31.41C32.57,23.15,33,20.58,33.14,18.17ZM9.08,16.58a8,8,0,0,1,4.16,1.81,9.41,9.41,0,0,1,2.85,3.43,2.63,2.63,0,0,1-.16,2.76H14.29L6.34,17.37A3.42,3.42,0,0,1,9.08,16.58ZM47.32,32.35a2.52,2.52,0,0,1-2.53,2.52l-40.26,0a2.47,2.47,0,1,1,0-4.94H43.22a.5.5,0,0,0,0-1H11.49L2,19.91a1.89,1.89,0,0,1,2.48-2.85l9.25,8.4a.46.46,0,0,0,.33.13h0l17-.09H44.8A2.52,2.52,0,0,1,47.32,28Z"/></g><g id="e7f08e28-18fa-4eb8-9143-6cee9226897c" data-name="LABELS"><text transform="translate(-0.52 54.91)" font-size="6" font-family="Roboto-Regular, Roboto">gurn<tspan x="12.01" y="0" letter-spacing="-0.01em">e</tspan><tspan x="15.16" y="0">y-st</tspan><tspan x="24.7" y="0" letter-spacing="-0.01em">r</tspan><tspan x="26.68" y="0">etcher</tspan></text></g></svg>
